X: 32584
T: Planxty Johnston
R: jig
M: 6/8
K: Dmajor
|:d2d dcB|A2G F2A|E2A D2d|{d}c2B A3|
f2e d2e|f2g a2b|a2f d2e|c2d e2f|
ecA ecA|B2c d2e|d2d {f}edc|d3 d3:|
|:afg a2d|c2d eBc|d2B c2A|B2G efg|
a2a aba|f2f fgf|ded c2d|ecA ABc|
dcB AGF|G3 G2d|e3 efe|ecA A2g|
faf gbg|faf geg|fdf ecA|d3 d3:|

